X: 26468
T: Meyler's Lucky Thirteen
R: hornpipe
M: 4/4
K: Gmajor
|:BA|G3 A BGBd|dGBc d2 ge|d3 e dB G2|EAAG AcBA|
G3 A BGBd|dGBc d2 ge|d3 e dBGB|AcBA G2:|
|:FG|A3 B cAFD|GABc d2 ge|d3 e dB G2|EAAG AcBA|
G3 A BGBd|dGBc d2 ge|d3 e dBGB|AcBA G2:|
|:dc|BGBc dGBd|cAdB G2 FG|A3 B cAFD|GABc d2 ge|
d3 e dB G2|EAAG AcBA|GFGA BdAc|B2 G2 G2:|
|:dc|B2 BA BdBG|c2 cA cedc|B2 BA BdBG|EAAG AcBA|
G3 A BGBc|dGBc d2 ge|d3 e dBGB|AcBA G2:|

